Newaita-dark/apps/32/datovka.svg

<svg height="32" viewBox="0 0 32 32" width="32" xmlns="http://www.w3.org/2000/svg" xmlns:xlink="http://www.w3.org/1999/xlink"><linearGradient id="a" gradientUnits="userSpaceOnUse" x1="15.87652" x2="15.87652" y1="28.033936" y2="29.35698000003"><stop offset="0" stop-opacity=".27451"/><stop offset="1" stop-opacity="0"/></linearGradient><linearGradient id="b"><stop offset="0" stop-opacity=".313726"/><stop offset=".222222" stop-opacity=".27451"/><stop offset="1" stop-opacity="0"/></linearGradient><radialGradient id="c" cx="450.908936" cy="189.579361" gradientTransform="matrix(.00000017 -.0781325 -.140638 -.0000001 52.130648 63.595333)" gradientUnits="userSpaceOnUse" r="21.166656" xlink:href="#b"/><radialGradient id="d" cx="450.908936" cy="189.579361" gradientTransform="matrix(-.00000017 .0781325 .140638 .0000001 -20.377613 -7.527479)" gradientUnits="userSpaceOnUse" r="21.166656" xlink:href="#b"/><radialGradient id="e" cx="450.908936" cy="189.579361" gradientTransform="matrix(-.00000017 -.0781325 .140638 -.0000001 -20.377613 63.595333)" gradientUnits="userSpaceOnUse" r="21.166656" xlink:href="#b"/><radialGradient id="f" cx="450.908936" cy="189.579361" gradientTransform="matrix(.00000017 .0781325 -.140638 .0000001 52.130646 -7.527479)" gradientUnits="userSpaceOnUse" r="21.166656" xlink:href="#b"/><linearGradient id="g" gradientUnits="userSpaceOnUse" x1="10.58434899997" x2="10.58434899997" y1="28.033934" y2="2.89610500006"><stop offset="0" stop-color="#2979ff"/><stop offset="1" stop-color="#42a5f5"/></linearGradient><linearGradient id="h" gradientUnits="userSpaceOnUse" x1="15.87648" x2="15.87648100882" y1="28.03386419623" y2="2.89610343548"><stop offset="0" stop-color="#ffa726"/><stop offset="1" stop-color="#ffb74d"/></linearGradient><path d="m5.953125 27.9375h19.847656v1.46875h-19.847656zm0 0" fill="url(#a)"/><path d="m25.800781 28.035156h2.644531v-1.324218h-2.644531zm0 0" fill="url(#c)"/><path d="m5.953125 28.035156h-2.644531v1.320313h2.644531zm0 0" fill="url(#d)"/><path d="m5.953125 28.035156h-2.644531v-1.324218h2.644531zm0 0" fill="url(#e)"/><path d="m25.800781 28.035156h2.644531v1.320313h-2.644531zm0 0" fill="url(#f)"/><path d="m4.628906 2.894531h22.492188c.730468 0 1.324218.59375 1.324218 1.324219v22.492188c0 .730468-.59375 1.324218-1.324218 1.324218h-22.492188c-.730468 0-1.320312-.59375-1.320312-1.324218v-22.492188c0-.730469.589844-1.324219 1.320312-1.324219zm0 0" fill="url(#g)"/><path d="m13.375 15.464844-9.921875 9.921875h-.144531v1.324219c0 .734374.589844 1.324218 1.320312 1.324218h22.492188c.734375 0 1.324218-.589844 1.324218-1.324218v-1.324219h-.144531l-9.921875-9.921875-1.566406 1.566406c-.519531.519531-1.351562.519531-1.871094 0zm0 0" fill-opacity=".078431"/><path d="m4.628906 2.992188c-.730468 0-1.320312.589843-1.320312 1.324218v.164063c0-.734375.589844-1.324219 1.320312-1.324219h22.492188c.734375 0 1.324218.589844 1.324218 1.324219v-.164063c0-.734375-.589843-1.324218-1.324218-1.324218zm0 0" fill="#e6e6e6" fill-opacity=".392157"/><path d="m4.628906 27.9375c-.730468 0-1.320312-.59375-1.320312-1.324219v-.167969c0 .734376.589844 1.324219 1.320312 1.324219h22.492188c.734375 0 1.324218-.589843 1.324218-1.324219v.167969c0 .730469-.589843 1.324219-1.324218 1.324219zm0 0" fill-opacity=".196078"/><path d="m4.628906 2.894531c-.730468 0-1.320312.589844-1.320312 1.324219v1.324219h.144531l11.488281 11.488281c.519532.519531 1.351563.519531 1.871094 0l11.488281-11.488281h.144531v-1.324219c0-.734375-.589843-1.324219-1.324218-1.324219zm0 0" fill="#fff" fill-opacity=".117647"/><path d="m74.055428-168.691922h359.840637c11.686384 0 21.185477 9.499093 21.185477 21.185477v359.840637c0 11.686384-9.499093 21.185477-21.185477 21.185477h-359.840637c-11.686384 0-21.122983-9.499093-21.122983-21.185477v-359.840637c0-11.686384 9.436599-21.185477 21.122983-21.185477zm0 0" fill="none" stroke="#212121" stroke-linecap="round" stroke-width="3" transform="matrix(.062506 0 0 .062506 0 13.438783)"/><path d="m12.238281 7.160156c-.496093 0-.925781.355469-1.011719.84375l-.996093 5.476563h4.375l.246093-1.390625c.128907-.726563 1.03125-1.144532 1.539063-.707032l2.472656 3.410157c.199219.171875.28125.445312.222657.734375-.054688.269531-.230469.519531-.472657.683594l-3.675781 3.410156c-.660156.4375-1.417969.023437-1.289062-.707032l.242187-1.390624h-4.398437l-.914063 5.035156c-.113281.632812.371094 1.210937 1.015625 1.214844h5.335938c4.585937 0 8.308593-3.722657 8.308593-8.308594 0-4.582032-3.722656-8.304688-8.308593-8.304688zm0 0" fill="url(#h)"/><path d="m12.238281 7.160156c-.496093 0-.925781.355469-1.011719.84375l-.996093 5.476563h.078125l.917968-5.03125c.085938-.492188.515626-.847657 1.011719-.847657h2.691407c4.511718 0 8.1875 3.601563 8.304687 8.085938.003906-.074219.003906-.148438.003906-.222656 0-4.582032-3.722656-8.304688-8.308593-8.304688zm6.835938 8.417969c-.066407.25-.234375.480469-.460938.632813l-3.675781 3.410156c-.539062.355468-1.140625.144531-1.277344-.339844l-.011718.074219c-.128907.730469.628906 1.148437 1.289062.710937l3.675781-3.414062c.242188-.160156.417969-.414063.472657-.683594.027343-.136719.023437-.269531-.011719-.390625zm-9.582031 1.945313-.914063 5.035156c-.023437.136718-.019531.273437.007813.402344l.90625-4.992188h4.320312l.078125-.445312zm0 0" fill="#fff" fill-opacity=".392157"/><path d="m15.894531 11.203125c-.457031 0-.953125.363281-1.042969.886719l-.246093 1.390625h-4.257813l-.117187.660156h4.375l.246093-1.386719c.128907-.730468 1.03125-1.144531 1.539063-.710937l2.472656 3.414062c.074219.0625.132813.144531.171875.234375.023438-.054687.039063-.109375.050782-.164062.058593-.289063-.023438-.5625-.222657-.734375l-2.472656-3.410157c-.140625-.121093-.316406-.179687-.496094-.179687zm7.335938 4.59375c-.171875 4.429687-3.824219 7.976563-8.300781 7.976563h-5.335938c-.46875-.003907-.855469-.3125-.984375-.722657l-.03125.167969c-.113281.632812.371094 1.214844 1.015625 1.214844h5.335938c4.585937 0 8.308593-3.722656 8.308593-8.308594 0-.109375-.003906-.21875-.007812-.328125zm-9.457031 2.390625-.125.726562c-.03125.164063-.015626.316407.039062.441407l.203125-1.167969zm0 0" fill-opacity=".235294"/><path d="m740.008112 432.950804c-29.997137 0-55.978909 21.494012-61.175264 51.018753l-60.230472 331.149496h264.541681l14.880469-84.086462c7.794532-43.932815 62.356254-69.205994 93.061984-42.751826l149.51329 206.200792c12.046094 10.392709 17.00625 26.926564 13.463281 44.405211-3.306771 16.297657-13.935677 31.414325-28.579949 41.334638l-222.262251 206.200792c-39.91745 26.454168-85.739848 1.417187-77.945317-42.751825l14.644272-84.086463h-265.958868l-55.270316 304.45913c-6.84974 38.264065 22.438804 73.221358 61.411462 73.457556h322.646371c277.296369 0 502.392995-225.096626 502.392995-502.392995 0-277.060171-225.096626-502.156797-502.392995-502.156797zm0 0" fill="none" stroke="#212121" stroke-linecap="round" stroke-linejoin="round" stroke-width="11.338583" transform="scale(.016538)"/></svg>

<?xml version="1.0" encoding="UTF-8"?>
<svg xmlns="http://www.w3.org/2000/svg" xmlns:xlink="http://www.w3.org/1999/xlink" width="32px" height="32px" viewBox="0 0 32 32" version="1.1">
<defs>
<linearGradient id="linear0" gradientUnits="userSpaceOnUse" x1="254" y1="233.5" x2="254" y2="254.666672" gradientTransform="matrix(0.062506,0,0,0.062506,-0.00000381506,13.438785)">
<stop offset="0" style="stop-color:rgb(0%,0%,0%);stop-opacity:0.27451;"/>
<stop offset="1" style="stop-color:rgb(0%,0%,0%);stop-opacity:0;"/>
</linearGradient>
<radialGradient id="radial0" gradientUnits="userSpaceOnUse" cx="450.908936" cy="189.579361" fx="450.908936" fy="189.579361" r="21.166656" gradientTransform="matrix(0.00000017417,-0.0781325,-0.140638,-0.000000101539,52.130648,63.595333)">
<stop offset="0" style="stop-color:rgb(0%,0%,0%);stop-opacity:0.313726;"/>
<stop offset="0.222222" style="stop-color:rgb(0%,0%,0%);stop-opacity:0.27451;"/>
<stop offset="1" style="stop-color:rgb(0%,0%,0%);stop-opacity:0;"/>
</radialGradient>
<radialGradient id="radial1" gradientUnits="userSpaceOnUse" cx="450.908936" cy="189.579361" fx="450.908936" fy="189.579361" r="21.166656" gradientTransform="matrix(-0.00000017417,0.0781325,0.140638,0.000000101539,-20.377613,-7.527479)">
<stop offset="0" style="stop-color:rgb(0%,0%,0%);stop-opacity:0.313726;"/>
<stop offset="0.222222" style="stop-color:rgb(0%,0%,0%);stop-opacity:0.27451;"/>
<stop offset="1" style="stop-color:rgb(0%,0%,0%);stop-opacity:0;"/>
</radialGradient>
<radialGradient id="radial2" gradientUnits="userSpaceOnUse" cx="450.908936" cy="189.579361" fx="450.908936" fy="189.579361" r="21.166656" gradientTransform="matrix(-0.00000017417,-0.0781325,0.140638,-0.000000101539,-20.377613,63.595333)">
<stop offset="0" style="stop-color:rgb(0%,0%,0%);stop-opacity:0.313726;"/>
<stop offset="0.222222" style="stop-color:rgb(0%,0%,0%);stop-opacity:0.27451;"/>
<stop offset="1" style="stop-color:rgb(0%,0%,0%);stop-opacity:0;"/>
</radialGradient>
<radialGradient id="radial3" gradientUnits="userSpaceOnUse" cx="450.908936" cy="189.579361" fx="450.908936" fy="189.579361" r="21.166656" gradientTransform="matrix(0.00000017417,0.0781325,-0.140638,0.000000101539,52.130646,-7.527479)">
<stop offset="0" style="stop-color:rgb(0%,0%,0%);stop-opacity:0.313726;"/>
<stop offset="0.222222" style="stop-color:rgb(0%,0%,0%);stop-opacity:0.27451;"/>
<stop offset="1" style="stop-color:rgb(0%,0%,0%);stop-opacity:0;"/>
</radialGradient>
<linearGradient id="linear1" gradientUnits="userSpaceOnUse" x1="169.333328" y1="233.5" x2="169.333328" y2="-168.666656" gradientTransform="matrix(0.062506,0,0,0.062506,0,13.438783)">
<stop offset="0" style="stop-color:rgb(16.078432%,47.450981%,100%);stop-opacity:1;"/>
<stop offset="1" style="stop-color:rgb(25.882354%,64.705884%,96.078432%);stop-opacity:1;"/>
</linearGradient>
<linearGradient id="linear2" gradientUnits="userSpaceOnUse" x1="960" y1="1695.118164" x2="960.000061" y2="175.118118" gradientTransform="matrix(0.016538,0,0,0.016538,0,0)">
<stop offset="0" style="stop-color:rgb(100%,65.490198%,14.901961%);stop-opacity:1;"/>
<stop offset="1" style="stop-color:rgb(100%,71.764708%,30.19608%);stop-opacity:1;"/>
</linearGradient>
</defs>
<g id="surface1">
<path style=" stroke:none;fill-rule:nonzero;fill:url(#linear0);" d="M 5.953125 27.9375 L 25.800781 27.9375 L 25.800781 29.40625 L 5.953125 29.40625 Z M 5.953125 27.9375 "/>
<path style=" stroke:none;fill-rule:nonzero;fill:url(#radial0);" d="M 25.800781 28.035156 L 28.445312 28.035156 L 28.445312 26.710938 L 25.800781 26.710938 Z M 25.800781 28.035156 "/>
<path style=" stroke:none;fill-rule:nonzero;fill:url(#radial1);" d="M 5.953125 28.035156 L 3.308594 28.035156 L 3.308594 29.355469 L 5.953125 29.355469 Z M 5.953125 28.035156 "/>
<path style=" stroke:none;fill-rule:nonzero;fill:url(#radial2);" d="M 5.953125 28.035156 L 3.308594 28.035156 L 3.308594 26.710938 L 5.953125 26.710938 Z M 5.953125 28.035156 "/>
<path style=" stroke:none;fill-rule:nonzero;fill:url(#radial3);" d="M 25.800781 28.035156 L 28.445312 28.035156 L 28.445312 29.355469 L 25.800781 29.355469 Z M 25.800781 28.035156 "/>
<path style=" stroke:none;fill-rule:nonzero;fill:url(#linear1);" d="M 4.628906 2.894531 L 27.121094 2.894531 C 27.851562 2.894531 28.445312 3.488281 28.445312 4.21875 L 28.445312 26.710938 C 28.445312 27.441406 27.851562 28.035156 27.121094 28.035156 L 4.628906 28.035156 C 3.898438 28.035156 3.308594 27.441406 3.308594 26.710938 L 3.308594 4.21875 C 3.308594 3.488281 3.898438 2.894531 4.628906 2.894531 Z M 4.628906 2.894531 "/>
<path style=" stroke:none;fill-rule:nonzero;fill:rgb(0%,0%,0%);fill-opacity:0.0784314;" d="M 13.375 15.464844 L 3.453125 25.386719 L 3.308594 25.386719 L 3.308594 26.710938 C 3.308594 27.445312 3.898438 28.035156 4.628906 28.035156 L 27.121094 28.035156 C 27.855469 28.035156 28.445312 27.445312 28.445312 26.710938 L 28.445312 25.386719 L 28.300781 25.386719 L 18.378906 15.464844 L 16.8125 17.03125 C 16.292969 17.550781 15.460938 17.550781 14.941406 17.03125 Z M 13.375 15.464844 "/>
<path style=" stroke:none;fill-rule:nonzero;fill:rgb(90.196079%,90.196079%,90.196079%);fill-opacity:0.392157;" d="M 4.628906 2.992188 C 3.898438 2.992188 3.308594 3.582031 3.308594 4.316406 L 3.308594 4.480469 C 3.308594 3.746094 3.898438 3.15625 4.628906 3.15625 L 27.121094 3.15625 C 27.855469 3.15625 28.445312 3.746094 28.445312 4.480469 L 28.445312 4.316406 C 28.445312 3.582031 27.855469 2.992188 27.121094 2.992188 Z M 4.628906 2.992188 "/>
<path style=" stroke:none;fill-rule:nonzero;fill:rgb(0%,0%,0%);fill-opacity:0.196078;" d="M 4.628906 27.9375 C 3.898438 27.9375 3.308594 27.34375 3.308594 26.613281 L 3.308594 26.445312 C 3.308594 27.179688 3.898438 27.769531 4.628906 27.769531 L 27.121094 27.769531 C 27.855469 27.769531 28.445312 27.179688 28.445312 26.445312 L 28.445312 26.613281 C 28.445312 27.34375 27.855469 27.9375 27.121094 27.9375 Z M 4.628906 27.9375 "/>
<path style=" stroke:none;fill-rule:nonzero;fill:rgb(100%,100%,100%);fill-opacity:0.117647;" d="M 4.628906 2.894531 C 3.898438 2.894531 3.308594 3.484375 3.308594 4.21875 L 3.308594 5.542969 L 3.453125 5.542969 L 14.941406 17.03125 C 15.460938 17.550781 16.292969 17.550781 16.8125 17.03125 L 28.300781 5.542969 L 28.445312 5.542969 L 28.445312 4.21875 C 28.445312 3.484375 27.855469 2.894531 27.121094 2.894531 Z M 4.628906 2.894531 "/>
<path style="fill:none;stroke-width:3;stroke-linecap:round;stroke-linejoin:miter;stroke:rgb(12.941177%,12.941177%,12.941177%);stroke-opacity:1;stroke-miterlimit:4;" d="M 74.055428 -168.691922 L 433.896065 -168.691922 C 445.582449 -168.691922 455.081542 -159.192829 455.081542 -147.506445 L 455.081542 212.334192 C 455.081542 224.020576 445.582449 233.519669 433.896065 233.519669 L 74.055428 233.519669 C 62.369044 233.519669 52.932445 224.020576 52.932445 212.334192 L 52.932445 -147.506445 C 52.932445 -159.192829 62.369044 -168.691922 74.055428 -168.691922 Z M 74.055428 -168.691922 " transform="matrix(0.062506,0,0,0.062506,0,13.438783)"/>
<path style=" stroke:none;fill-rule:nonzero;fill:url(#linear2);" d="M 12.238281 7.160156 C 11.742188 7.160156 11.3125 7.515625 11.226562 8.003906 L 10.230469 13.480469 L 14.605469 13.480469 L 14.851562 12.089844 C 14.980469 11.363281 15.882812 10.945312 16.390625 11.382812 L 18.863281 14.792969 C 19.0625 14.964844 19.144531 15.238281 19.085938 15.527344 C 19.03125 15.796875 18.855469 16.046875 18.613281 16.210938 L 14.9375 19.621094 C 14.277344 20.058594 13.519531 19.644531 13.648438 18.914062 L 13.890625 17.523438 L 9.492188 17.523438 L 8.578125 22.558594 C 8.464844 23.191406 8.949219 23.769531 9.59375 23.773438 L 14.929688 23.773438 C 19.515625 23.773438 23.238281 20.050781 23.238281 15.464844 C 23.238281 10.882812 19.515625 7.160156 14.929688 7.160156 Z M 12.238281 7.160156 "/>
<path style=" stroke:none;fill-rule:nonzero;fill:rgb(100%,100%,100%);fill-opacity:0.392157;" d="M 12.238281 7.160156 C 11.742188 7.160156 11.3125 7.515625 11.226562 8.003906 L 10.230469 13.480469 L 10.308594 13.480469 L 11.226562 8.449219 C 11.3125 7.957031 11.742188 7.601562 12.238281 7.601562 L 14.929688 7.601562 C 19.441406 7.601562 23.117188 11.203125 23.234375 15.6875 C 23.238281 15.613281 23.238281 15.539062 23.238281 15.464844 C 23.238281 10.882812 19.515625 7.160156 14.929688 7.160156 Z M 19.074219 15.578125 C 19.007812 15.828125 18.839844 16.058594 18.613281 16.210938 L 14.9375 19.621094 C 14.398438 19.976562 13.796875 19.765625 13.660156 19.28125 L 13.648438 19.355469 C 13.519531 20.085938 14.277344 20.503906 14.9375 20.066406 L 18.613281 16.652344 C 18.855469 16.492188 19.03125 16.238281 19.085938 15.96875 C 19.113281 15.832031 19.109375 15.699219 19.074219 15.578125 Z M 9.492188 17.523438 L 8.578125 22.558594 C 8.554688 22.695312 8.558594 22.832031 8.585938 22.960938 L 9.492188 17.96875 L 13.8125 17.96875 L 13.890625 17.523438 Z M 9.492188 17.523438 "/>
<path style=" stroke:none;fill-rule:nonzero;fill:rgb(0%,0%,0%);fill-opacity:0.235294;" d="M 15.894531 11.203125 C 15.4375 11.203125 14.941406 11.566406 14.851562 12.089844 L 14.605469 13.480469 L 10.347656 13.480469 L 10.230469 14.140625 L 14.605469 14.140625 L 14.851562 12.753906 C 14.980469 12.023438 15.882812 11.609375 16.390625 12.042969 L 18.863281 15.457031 C 18.9375 15.519531 18.996094 15.601562 19.035156 15.691406 C 19.058594 15.636719 19.074219 15.582031 19.085938 15.527344 C 19.144531 15.238281 19.0625 14.964844 18.863281 14.792969 L 16.390625 11.382812 C 16.25 11.261719 16.074219 11.203125 15.894531 11.203125 Z M 23.230469 15.796875 C 23.058594 20.226562 19.40625 23.773438 14.929688 23.773438 L 9.59375 23.773438 C 9.125 23.769531 8.738281 23.460938 8.609375 23.050781 L 8.578125 23.21875 C 8.464844 23.851562 8.949219 24.433594 9.59375 24.433594 L 14.929688 24.433594 C 19.515625 24.433594 23.238281 20.710938 23.238281 16.125 C 23.238281 16.015625 23.234375 15.90625 23.230469 15.796875 Z M 13.773438 18.1875 L 13.648438 18.914062 C 13.617188 19.078125 13.632812 19.230469 13.6875 19.355469 L 13.890625 18.1875 Z M 13.773438 18.1875 "/>
<path style="fill:none;stroke-width:11.338583;stroke-linecap:round;stroke-linejoin:round;stroke:rgb(12.941177%,12.941177%,12.941177%);stroke-opacity:1;stroke-miterlimit:4;" d="M 740.008112 432.950804 C 710.010975 432.950804 684.029203 454.444816 678.832848 483.969557 L 618.602376 815.119053 L 883.144057 815.119053 L 898.024526 731.032591 C 905.819058 687.099776 960.38078 661.826597 991.08651 688.280765 L 1140.5998 894.481557 C 1152.645894 904.874266 1157.60605 921.408121 1154.063081 938.886768 C 1150.75631 955.184425 1140.127404 970.301093 1125.483132 980.221406 L 903.220881 1186.422198 C 863.303431 1212.876366 817.481033 1187.839385 825.275564 1143.670373 L 839.919836 1059.58391 L 573.960968 1059.58391 L 518.690652 1364.04304 C 511.840912 1402.307105 541.129456 1437.264398 580.102114 1437.500596 L 902.748485 1437.500596 C 1180.044854 1437.500596 1405.14148 1212.40397 1405.14148 935.107601 C 1405.14148 658.04743 1180.044854 432.950804 902.748485 432.950804 Z M 740.008112 432.950804 " transform="matrix(0.016538,0,0,0.016538,0,0)"/>
</g>
</svg>
